dressly/src/assets/icons/cart.svg

<svg width="20" height="20" viewBox="0 0 20 20" fill="none" xmlns="http://www.w3.org/2000/svg">
<path fill-rule="evenodd" clip-rule="evenodd" d="M9.90349 1.87499C9.22185 1.87477 8.75673 1.87461 8.35784 1.98149C7.27943 2.27045 6.43709 3.11279 6.14813 4.1912C6.07135 4.47775 6.04981 4.79849 6.04385 5.20913C5.36783 5.21377 4.86408 5.2422 4.42254 5.40818C3.7137 5.67463 3.12573 6.18941 2.76793 6.85681C2.49861 7.35918 2.41637 7.97813 2.29658 8.87964L1.61008 14.0287C1.52603 14.659 1.45853 15.1652 1.43334 15.5775C1.40755 15.9995 1.42159 16.376 1.53055 16.7368C1.79098 17.5991 2.41086 18.3071 3.23123 18.6793C3.57446 18.8349 3.94578 18.8986 4.36749 18.9288C4.77946 18.9583 5.29012 18.9583 5.92601 18.9583H14.0739C14.7098 18.9583 15.2205 18.9583 15.6325 18.9288C16.0542 18.8986 16.4255 18.8349 16.7687 18.6793C17.5891 18.3071 18.209 17.5991 18.4694 16.7368C18.5784 16.376 18.5924 15.9995 18.5666 15.5775C18.5414 15.1652 18.4739 14.659 18.3899 14.0287L17.7034 8.87965C17.5836 7.97814 17.5014 7.35918 17.232 6.85681C16.8742 6.18941 16.2863 5.67463 15.5774 5.40818C15.1359 5.2422 14.6321 5.21377 13.9561 5.20913C13.9502 4.79849 13.9286 4.47775 13.8518 4.1912C13.5629 3.11279 12.7205 2.27045 11.6421 1.98149C11.2432 1.87461 10.7781 1.87477 10.0965 1.87499H9.90349ZM12.7083 6.45834V8.33334C12.7083 8.67852 12.9881 8.95834 13.3333 8.95834C13.6785 8.95834 13.9583 8.67852 13.9583 8.33334V6.46028C14.6175 6.46638 14.9039 6.49039 15.1376 6.57824C15.5629 6.73811 15.9157 7.04698 16.1304 7.44742C16.2781 7.72296 16.3375 8.09357 16.4811 9.17033L17.1477 14.1703C17.2356 14.8297 17.2968 15.2915 17.319 15.6537C17.3408 16.0114 17.3201 16.2188 17.2728 16.3754C17.1165 16.8928 16.7446 17.3176 16.2524 17.5409C16.1034 17.6085 15.9006 17.6564 15.5432 17.682C15.1811 17.708 14.7153 17.7083 14.0501 17.7083H5.94984C5.28467 17.7083 4.81884 17.708 4.45681 17.682C4.09939 17.6564 3.89656 17.6085 3.74758 17.5409C3.25536 17.3176 2.88343 16.8928 2.72717 16.3754C2.67988 16.2188 2.65915 16.0114 2.68101 15.6537C2.70315 15.2915 2.76434 14.8297 2.85225 14.1703L3.51892 9.17033C3.66249 8.09357 3.72189 7.72296 3.8696 7.44742C4.08428 7.04698 4.43706 6.73811 4.86237 6.57824C5.09608 6.49039 5.38246 6.46638 6.04165 6.46028V8.33334C6.04165 8.67852 6.32147 8.95834 6.66665 8.95834C7.01183 8.95834 7.29165 8.67852 7.29165 8.33334V6.45834H12.7083ZM12.7053 5.20834C12.6997 4.84586 12.6846 4.66461 12.6444 4.51472C12.4711 3.86768 11.9657 3.36228 11.3186 3.1889C11.1002 3.13038 10.8152 3.12501 9.99998 3.12501C9.18477 3.12501 8.89977 3.13038 8.68137 3.1889C8.03432 3.36228 7.52892 3.86768 7.35554 4.51472C7.31538 4.66461 7.30025 4.84586 7.29471 5.20834H12.7053Z" fill="#1B1314"/>
</svg>

<svg xmlns="http://www.w3.org/2000/svg" width="20" height="20" fill="none"><path fill="#1B1314" fill-rule="evenodd" d="M9.903 1.875c-.681 0-1.146 0-1.545.106a3.13 3.13 0 0 0-2.21 2.21c-.077.287-.098.607-.104 1.018-.676.005-1.18.033-1.621.2a3.13 3.13 0 0 0-1.655 1.448c-.27.502-.352 1.121-.471 2.023l-.687 5.149a24 24 0 0 0-.177 1.549c-.025.422-.011.798.098 1.159.26.862.88 1.57 1.7 1.942.343.156.715.22 1.136.25.412.03.923.03 1.559.03h8.148c.636 0 1.146 0 1.559-.03.421-.03.793-.094 1.136-.25a3.13 3.13 0 0 0 1.7-1.942c.11-.361.123-.737.098-1.16a24 24 0 0 0-.177-1.548l-.687-5.15c-.12-.9-.202-1.52-.471-2.022a3.13 3.13 0 0 0-1.655-1.449c-.441-.166-.945-.194-1.62-.199-.007-.41-.028-.731-.105-1.018a3.13 3.13 0 0 0-2.21-2.21c-.399-.106-.864-.106-1.545-.106zm2.805 4.583v1.875a.625.625 0 1 0 1.25 0V6.46c.66.006.946.03 1.18.118.425.16.778.469.992.87.148.275.207.646.351 1.722l.667 5c.088.66.149 1.121.171 1.484.022.357.001.565-.046.721a1.88 1.88 0 0 1-1.02 1.166c-.15.067-.352.115-.71.141-.362.026-.828.026-1.493.026h-8.1c-.665 0-1.131 0-1.493-.026-.358-.026-.56-.073-.71-.141a1.88 1.88 0 0 1-1.02-1.166c-.047-.156-.068-.364-.046-.721.022-.363.083-.824.171-1.484l.667-5c.143-1.076.203-1.447.35-1.723.215-.4.568-.709.993-.869.234-.088.52-.112 1.18-.118v1.873a.625.625 0 1 0 1.25 0V6.458zm-.003-1.25c-.005-.362-.02-.543-.06-.693a1.88 1.88 0 0 0-1.326-1.326c-.219-.059-.504-.064-1.319-.064s-1.1.005-1.319.064a1.88 1.88 0 0 0-1.325 1.326c-.04.15-.056.33-.061.693z" clip-rule="evenodd"/></svg>
